src/main/webapp/resources/showcase/images/whouses/hp.svg

<?xml version="1.0" encoding="UTF-8"?>
<svg width="40px" height="40px" viewBox="0 0 40 40" version="1.1" xmlns="http://www.w3.org/2000/svg" xmlns:xlink="http://www.w3.org/1999/xlink">
    <title>hp</title>
    <g id="Page-1" stroke="none" stroke-width="1" fill="none" fill-rule="evenodd">
        <g id="PrimeNG-Showcase-HD---Landing" transform="translate(-569.000000, -1347.000000)" fill="#FFFFFF" fill-rule="nonzero">
            <g id="brands" transform="translate(0.000000, 1195.000000)">
                <g transform="translate(259.000000, 28.000000)" id="hp">
                    <g transform="translate(310.000000, 124.000000)">
                        <path d="M20,40 C19.8012037,40 19.6032407,39.9963889 19.4056481,39.9906482 L23.492963,28.757526 L29.117963,28.757526 C30.1052778,28.757526 31.1890741,27.9985463 31.5267593,27.0712336 L35.9612037,14.8910766 C36.6866667,12.8969146 35.5444444,11.2654369 33.4225,11.2654369 L25.6188889,11.2654369 L19.0712037,29.2576175 L19.0687963,29.2576175 L15.3568519,39.4569457 C6.55037037,37.3633394 0,29.4469689 0,20.0000463 C0,10.8254379 6.17787037,3.09452987 14.6002778,0.738331624 L10.7701852,11.2654369 L10.7690741,11.2654369 L4.40175926,28.757526 L8.64046296,28.7578964 L14.0553704,13.8939493 L17.2409259,13.8939493 L11.8260185,28.7578964 L16.0631481,28.7586371 L21.1092593,14.8910766 C21.8351852,12.8969146 20.6928704,11.2654369 18.5728704,11.2654369 L15.0098148,11.2654369 L19.1011111,0.0210184699 C19.3993519,0.00777775977 19.6987037,0 20,0 C31.0457407,0 40,8.95423853 40,20.0000463 C40,31.0455763 31.0457407,40 20,40 Z M32.1011111,13.8833012 L28.9163889,13.8833012 L24.4564815,26.1201247 L27.6412963,26.1201247 L32.1011111,13.8833012 Z" id="Shape"></path>
                    </g>
                </g>
            </g>
        </g>
    </g>
</svg>

<svg width="40" height="40" xmlns="http://www.w3.org/2000/svg"><path d="M20 40c-.199 0-.397-.004-.594-.01l4.087-11.232h5.625c.987 0 2.071-.76 2.409-1.687l4.434-12.18c.726-1.994-.417-3.626-2.538-3.626h-7.804L19.07 29.258h-.002l-3.712 10.199C6.55 37.363 0 29.447 0 20 0 10.825 6.178 3.095 14.6.738l-3.83 10.527-6.368 17.493H8.64l5.415-14.864h3.186l-5.415 14.864h4.237l5.046-13.867c.726-1.994-.416-3.626-2.536-3.626H15.01L19.1.021C19.4.008 19.7 0 20 0c11.046 0 20 8.954 20 20s-8.954 20-20 20zm12.101-26.117h-3.185l-4.46 12.237h3.185l4.46-12.237z" fill="#FFF"/></svg>
